public/illustrations/_gear.svg

<svg width="370" height="234" viewBox="0 0 370 234" fill="none" xmlns="http://www.w3.org/2000/svg">
<path d="M165.978 28.4589C167.252 22.2291 167.393 15.7162 166.402 9.3448V6.22981C166.685 1.98224 168.526 0.141586 172.774 0C175.747 0 178.72 0.283241 181.694 0.424827L227.143 1.55758C232.948 1.55758 234.93 3.9644 234.364 9.91101C233.797 15.0081 233.373 20.1052 232.948 25.4855C235.355 26.335 237.479 27.043 239.603 27.8925C244.558 30.1579 249.655 32.4232 254.469 35.1134C255.319 35.6797 256.31 35.9629 257.301 35.8213C258.292 35.8213 259.283 35.2549 259.849 34.547C263.247 31.5737 266.646 28.742 270.185 25.9103C274.433 22.6538 276.981 22.7954 280.521 26.6182C292.131 39.3609 303.741 52.1037 315.21 64.8464C318.75 68.8108 318.466 71.3594 314.643 75.1822C311.245 78.5803 307.706 81.6952 304.308 85.0932C303.317 85.9427 302.467 86.9337 301.617 87.7832C299.21 90.0486 298.786 92.5972 299.494 95.9953C301.759 105.198 302.325 114.826 301.476 124.312C301.193 127.286 301.759 129.126 304.591 130.825C308.839 133.657 312.944 136.772 316.767 140.312C319.74 142.719 320.024 144.984 318.042 148.524C313.369 157.302 308.414 166.08 303.6 174.859C300.06 181.371 296.379 187.884 292.839 194.397C292.414 195.247 291.848 196.238 291.282 197.088C289.016 200.344 286.609 201.052 282.928 199.494C276.698 196.663 270.469 193.548 263.672 190.433C260.982 192.132 257.867 194.256 254.611 195.955C251.213 197.795 247.815 199.494 244.275 201.052C243.142 201.335 242.293 202.043 241.585 203.034C240.877 204.025 240.452 205.016 240.452 206.149C240.027 211.813 239.319 217.334 238.895 222.998C238.187 232.626 236.629 233.9 227.001 233.192C208.17 231.918 189.339 230.643 170.508 229.369C168.526 229.369 166.402 228.944 164.42 228.803C159.748 228.378 157.624 225.971 158.19 221.44C159.181 214.927 160.172 208.414 161.447 202.043C162.013 199.636 161.447 198.645 159.323 197.512C150.828 193.123 143.04 187.601 136.244 180.805C135.536 179.956 134.687 179.389 133.696 179.248C132.705 179.106 131.714 179.248 130.722 179.814C126.192 181.796 121.661 183.637 117.13 185.336C111.75 187.46 109.201 186.327 107.077 181.088C100.423 164.523 93.9099 147.957 87.5385 131.25C85.6978 126.578 86.6889 124.029 91.2197 121.906C95.7505 119.782 100.281 117.799 104.954 115.817C105.803 115.534 106.369 114.968 106.794 114.401C107.219 113.694 107.502 112.844 107.361 112.136C107.361 108.03 107.785 103.924 108.493 99.818C108.776 98.5438 108.635 97.128 108.069 95.8537C107.502 94.5795 106.511 93.7299 105.237 93.1636L95.6088 87.5001C94.7593 86.9338 93.7682 86.5091 92.9186 85.9427C88.8126 83.3942 87.9631 80.8455 90.0869 76.4564C94.4761 67.5365 98.8653 58.7582 103.396 49.9799C106.369 44.0333 109.343 37.9451 112.458 32.1401C115.006 27.1846 117.13 26.3351 122.51 28.4589C129.448 31.2906 136.244 34.1223 143.04 37.2371C144.031 37.8035 145.164 38.0867 146.297 37.9451C147.43 37.9451 148.562 37.5202 149.412 36.8123C154.509 33.6974 159.889 31.0074 165.553 27.8925L165.978 28.4589ZM224.028 11.7517L176.88 10.4774C176.88 16.7072 176.455 22.3706 177.021 28.0341C177.446 32.5648 174.614 36.246 170.508 38.0866C164.845 40.6352 159.464 43.467 154.226 46.8651C149.978 49.6968 146.155 50.263 141.766 47.9976C140.917 47.5729 140.209 47.2898 139.359 46.8651L121.094 39.2194C114.44 52.5285 107.785 65.696 101.272 78.7219C106.511 82.2615 111.325 85.518 116.422 88.6329C117.838 89.3408 118.971 90.6149 119.679 92.0308C120.386 93.4467 120.528 95.1458 120.245 96.7032C119.537 103.641 118.971 110.437 118.404 117.375C118.404 118.649 117.98 120.065 117.272 121.198C116.564 122.33 115.431 123.18 114.157 123.746C110.9 125.162 107.644 126.578 104.246 127.994C102.405 128.843 100.564 129.693 98.5821 130.542C104.529 145.55 110.334 160.275 116.139 175.142C121.519 173.018 126.616 171.177 131.43 169.054C135.678 167.355 137.802 167.638 141.058 171.036C149.27 179.673 158.615 186.893 169.8 191.283C170.791 191.707 171.783 192.415 172.349 193.265C172.915 194.114 173.198 195.247 173.198 196.38C173.198 197.796 172.915 199.211 172.632 200.627C171.499 206.574 170.367 212.662 169.092 219.317L228.984 223.281C229.125 221.865 229.267 221.157 229.408 220.449C230.116 214.361 230.683 208.273 231.249 202.043C231.674 196.946 233.373 192.982 239.603 193.406C246.965 190.292 254.186 187.177 259.991 181.372C260.84 180.381 261.973 179.673 263.247 179.389C264.522 179.106 265.796 179.389 266.929 179.956C268.486 180.664 269.76 181.655 271.318 182.504C275.565 184.77 279.813 187.035 284.344 189.442C292.414 174.717 300.202 160.558 308.131 146.117C303.741 142.86 299.635 139.745 295.388 136.914C291.99 134.507 290.007 131.392 291.14 127.852C293.122 121.764 292.698 115.534 291.99 109.446C291.14 103.782 289.866 98.119 288.308 92.5972C287.883 91.3229 287.883 89.9072 288.308 88.6329C288.591 87.3586 289.441 86.0843 290.432 85.2348C294.68 80.9872 298.927 76.7397 303.175 72.3505C304.024 71.501 304.874 70.5099 305.865 69.5188L275.141 35.6797L259.991 47.0066C257.442 48.9888 255.602 48.8472 253.053 47.0066C251.779 45.8739 250.363 44.7412 248.806 43.7501C242.01 39.7857 234.505 36.6707 226.86 34.6885C225.727 34.4054 224.736 33.8391 224.028 32.9896C223.32 32.1401 222.895 31.0074 222.895 29.8748C222.895 26.7599 223.179 23.7866 223.32 20.6717C223.462 17.9815 223.886 15.2913 224.311 11.8932L224.028 11.7517Z" fill="#102185"/>
<path d="M41.0987 43.8916C40.8156 48.7055 42.2314 53.5195 45.3463 57.2007C49.8771 62.7226 54.1248 68.6693 60.4962 72.3505C61.2041 72.7753 61.7704 73.2 62.3367 73.7664C66.3012 77.1644 66.5844 80.8456 62.7616 84.6684C62.0536 85.3763 61.204 86.0843 60.3545 86.6507C47.3285 95.8537 40.2493 108.596 37.1344 123.888C36.4265 126.861 36.1432 129.976 35.5768 132.949C35.4352 133.94 35.1521 134.931 34.8689 135.922C34.4441 137.055 33.7362 137.905 32.7451 138.471C31.754 139.037 30.6214 139.321 29.4887 139.179C28.356 139.037 27.2233 138.33 26.5154 137.48C25.6659 136.63 25.2411 135.498 25.0995 134.365C24.8164 131.25 24.6746 128.277 24.2499 125.162C23.4004 117.941 22.8341 110.579 21.7014 103.358C20.4271 95.5704 16.6043 89.7654 8.39224 87.7832C6.6932 87.3585 5.27727 86.7922 3.71981 85.9427C-1.09413 83.111 -1.23562 78.297 3.29516 75.0405C4.28626 74.3326 5.27734 73.9079 6.26844 73.2C11.5072 69.3772 16.8874 65.5543 21.9845 61.4483C26.7985 57.4839 28.7807 51.962 29.6302 46.0154C29.6302 44.3164 29.9134 42.7589 30.3382 41.0599C31.0461 39.2193 32.1788 37.5204 33.7363 36.2461C36.8512 34.1223 40.674 36.1045 41.0987 39.9273V43.8916ZM15.8964 79.8545C26.9402 84.6684 30.4797 93.8716 32.6035 104.207C37.1343 94.1547 44.4969 86.6506 52.001 79.8545L35.1522 61.4483C30.4798 69.0939 23.4005 74.1911 15.8964 79.7129V79.8545Z" fill="#102185"/>
<path d="M348.341 114.968C348.766 108.597 349.474 102.225 349.474 95.8539C349.474 83.8191 347.633 71.7842 343.952 60.1742C342.819 57.0593 341.545 53.9445 339.987 51.1128C338.43 47.9979 338.713 45.1662 341.12 43.6087C343.527 42.0513 346.359 42.7592 348.483 45.5909C351.881 50.2633 353.58 55.6435 354.995 61.1654C358.677 75.8903 360.942 90.8983 359.243 106.19C358.96 109.163 358.96 112.136 358.819 115.534C359.951 114.543 360.659 113.835 361.509 113.127C362.358 112.278 363.491 111.853 364.623 111.853C365.756 111.853 366.889 112.136 367.88 112.844C368.871 113.552 369.579 114.543 369.721 115.676C370.004 116.809 369.721 118.083 369.013 119.074C366.606 122.755 364.057 126.295 361.225 129.551C359.243 131.675 356.978 133.657 354.571 135.356C350.465 138.188 346.076 137.339 343.952 132.808C341.403 127.569 339.421 122.189 337.439 116.809C337.014 115.676 337.014 114.543 337.439 113.411C337.864 112.278 338.713 111.428 339.704 110.862C340.837 110.296 342.111 110.154 343.244 110.437C344.377 110.72 345.509 111.428 346.217 112.419C346.925 113.269 347.35 114.26 348.058 115.251H348.766L348.341 114.968Z" fill="#102185"/>
<path d="M203.64 175.991C172.774 175.708 147.147 153.904 142.475 123.888C140.634 111.57 142.616 99.1101 148.138 88.0664C153.66 77.0228 162.297 67.8197 173.058 61.7315C187.075 53.5195 203.782 50.971 219.498 54.7938C245.408 60.7404 263.107 80.2792 267.071 104.632C269.195 117.658 267.071 131.109 260.7 142.719C254.47 154.47 244.7 163.815 232.666 169.478C223.604 173.867 213.693 176.133 203.499 175.991H203.64ZM257.302 113.835C257.727 94.7209 246.4 74.4741 222.188 65.8374C210.012 61.4482 197.411 62.2978 185.234 66.9701C155.359 78.7217 142.475 113.977 159.182 140.595C171.217 159.85 189.482 167.921 211.852 164.947C239.037 161.408 258.01 137.763 257.302 113.693V113.835Z" fill="#102185"/>
<path d="M225.586 112.844C225.586 125.87 214.825 137.197 202.083 137.197C189.34 137.197 196.419 136.63 193.871 135.498C191.18 134.365 188.915 132.808 186.933 130.825C184.951 128.843 183.393 126.436 182.26 123.746C181.128 121.056 180.703 118.366 180.703 115.534C180.703 102.65 191.605 91.0397 204.206 91.3228C218.223 91.606 225.586 102.083 225.586 112.986V112.844ZM202.083 126.719C205.622 126.719 209.02 125.162 211.427 122.613C213.976 120.065 215.392 116.667 215.392 113.127C215.392 111.145 215.109 109.163 214.117 107.322C213.126 105.623 211.852 104.066 210.153 103.075C208.454 102.083 206.472 101.517 204.49 101.376C202.507 101.376 200.525 101.8 198.826 102.791C196.561 103.924 194.578 105.623 193.304 107.747C191.888 109.871 191.18 112.278 190.897 114.826C190.897 116.384 190.897 117.941 191.464 119.357C192.03 120.773 192.738 122.189 193.871 123.321C195.003 124.454 196.277 125.303 197.693 125.87C199.109 126.436 200.667 126.719 202.224 126.719H202.083Z" fill="#102185"/>
</svg>

<svg xmlns="http://www.w3.org/2000/svg" width="370" height="234" fill="none" viewBox="0 0 370 234"><path fill="#102185" d="M165.978 28.459c1.274-6.23 1.415-12.743.424-19.114V6.23c.283-4.248 2.124-6.088 6.372-6.23 2.973 0 5.946.283 8.92.425l45.449 1.133c5.805 0 7.787 2.406 7.221 8.353-.567 5.097-.991 10.194-1.416 15.574 2.407.85 4.531 1.558 6.655 2.407 4.955 2.266 10.052 4.531 14.866 7.221.85.567 1.841.85 2.832.708.991 0 1.982-.566 2.548-1.274a304 304 0 0 1 10.336-8.637c4.248-3.256 6.796-3.115 10.336.708 11.61 12.743 23.22 25.486 34.689 38.228 3.54 3.965 3.256 6.513-.567 10.336-3.398 3.398-6.937 6.513-10.335 9.911-.991.85-1.841 1.84-2.691 2.69-2.407 2.266-2.831 4.814-2.123 8.212 2.265 9.203 2.831 18.831 1.982 28.317-.283 2.974.283 4.814 3.115 6.513 4.248 2.832 8.353 5.947 12.176 9.487 2.973 2.407 3.257 4.672 1.275 8.212-4.673 8.778-9.628 17.556-14.442 26.335-3.54 6.512-7.221 13.025-10.761 19.538-.425.85-.991 1.841-1.557 2.691-2.266 3.256-4.673 3.964-8.354 2.406-6.23-2.831-12.459-5.946-19.256-9.061-2.69 1.699-5.805 3.823-9.061 5.522-3.398 1.84-6.796 3.539-10.336 5.097-1.133.283-1.982.991-2.69 1.982s-1.133 1.982-1.133 3.115c-.425 5.664-1.133 11.185-1.557 16.849-.708 9.628-2.266 10.902-11.894 10.194l-56.493-3.823c-1.982 0-4.106-.425-6.088-.566-4.672-.425-6.796-2.832-6.23-7.363.991-6.513 1.982-13.026 3.257-19.397.566-2.407 0-3.398-2.124-4.531-8.495-4.389-16.283-9.911-23.079-16.707-.708-.849-1.557-1.416-2.548-1.557a4.52 4.52 0 0 0-2.974.566 273 273 0 0 1-13.592 5.522c-5.38 2.124-7.929.991-10.053-4.248a3033 3033 0 0 1-19.538-49.838c-1.841-4.672-.85-7.221 3.68-9.344 4.532-2.124 9.062-4.107 13.735-6.089.849-.283 1.415-.849 1.84-1.416.425-.707.708-1.557.567-2.265 0-4.106.424-8.212 1.132-12.318.283-1.274.142-2.69-.424-3.964-.567-1.275-1.558-2.124-2.832-2.69L95.609 87.5c-.85-.566-1.84-.99-2.69-1.557-4.106-2.549-4.956-5.097-2.832-9.487 4.39-8.92 8.778-17.698 13.309-26.476 2.973-5.947 5.947-12.035 9.062-17.84 2.548-4.955 4.672-5.805 10.052-3.681 6.938 2.832 13.734 5.663 20.53 8.778.991.566 2.124.85 3.257.708a4.95 4.95 0 0 0 3.115-1.133c5.097-3.115 10.477-5.805 16.141-8.92zm58.05-16.707-47.148-1.275c0 6.23-.425 11.894.141 17.557.425 4.53-2.407 8.212-6.513 10.053-5.663 2.548-11.044 5.38-16.282 8.778-4.248 2.832-8.071 3.398-12.46 1.133-.849-.425-1.557-.708-2.407-1.133l-18.265-7.646c-6.654 13.31-13.309 26.477-19.822 39.503 5.239 3.54 10.053 6.796 15.15 9.91 1.416.709 2.549 1.983 3.257 3.399.707 1.416.849 3.115.566 4.672-.708 6.938-1.274 13.734-1.841 20.672 0 1.274-.424 2.69-1.132 3.823-.708 1.132-1.841 1.982-3.115 2.548-3.257 1.416-6.513 2.832-9.911 4.248-1.841.849-3.682 1.699-5.664 2.548a9526 9526 0 0 1 17.557 44.6c5.38-2.124 10.477-3.965 15.291-6.088 4.248-1.699 6.372-1.416 9.628 1.982 8.212 8.637 17.557 15.857 28.742 20.247.991.424 1.983 1.132 2.549 1.982.566.849.849 1.982.849 3.115 0 1.416-.283 2.831-.566 4.247-1.133 5.947-2.265 12.035-3.54 18.69l59.892 3.964c.141-1.416.283-2.124.424-2.832.708-6.088 1.275-12.176 1.841-18.406.425-5.097 2.124-9.061 8.354-8.637 7.362-3.114 14.583-6.229 20.388-12.034a6.03 6.03 0 0 1 3.256-1.983c1.275-.283 2.549 0 3.682.567 1.557.708 2.831 1.699 4.389 2.548 4.247 2.266 8.495 4.531 13.026 6.938 8.07-14.725 15.858-28.884 23.787-43.325-4.39-3.257-8.496-6.372-12.743-9.203-3.398-2.407-5.381-5.522-4.248-9.062 1.982-6.088 1.558-12.318.85-18.406-.85-5.664-2.124-11.327-3.682-16.849a6.32 6.32 0 0 1 0-3.964c.283-1.274 1.133-2.549 2.124-3.398 4.248-4.248 8.495-8.495 12.743-12.885.849-.849 1.699-1.84 2.69-2.831l-30.724-33.84-15.15 11.328c-2.549 1.982-4.389 1.84-6.938 0-1.274-1.133-2.69-2.266-4.247-3.257-6.796-3.964-14.301-7.08-21.946-9.062-1.133-.283-2.124-.849-2.832-1.698a4.95 4.95 0 0 1-1.133-3.115c0-3.115.284-6.088.425-9.203.142-2.69.566-5.38.991-8.779zM41.099 43.892c-.283 4.813 1.132 9.627 4.247 13.309 4.531 5.522 8.779 11.468 15.15 15.15.708.424 1.274.849 1.84 1.415 3.965 3.398 4.248 7.08.426 10.902a16.3 16.3 0 0 1-2.407 1.983c-13.026 9.203-20.106 21.945-23.22 37.237-.709 2.973-.992 6.088-1.558 9.061-.142.991-.425 1.982-.708 2.973q-.638 1.7-2.124 2.549c-.991.566-2.124.85-3.256.708-1.133-.142-2.266-.849-2.974-1.699-.85-.85-1.274-1.982-1.416-3.115-.283-3.115-.424-6.088-.85-9.203-.849-7.221-1.415-14.583-2.548-21.804-1.274-7.788-5.097-13.593-13.309-15.575-1.699-.424-3.115-.99-4.672-1.84-4.814-2.832-4.956-7.646-.425-10.903.991-.707 1.982-1.132 2.973-1.84 5.24-3.823 10.62-7.646 15.717-11.752 4.814-3.964 6.796-9.486 7.645-15.433 0-1.699.283-3.256.708-4.955.708-1.84 1.84-3.54 3.398-4.814 3.115-2.124 6.938-.142 7.363 3.681zM15.896 79.855c11.044 4.813 14.584 14.017 16.707 24.352 4.531-10.052 11.894-17.556 19.398-24.352L35.152 61.448c-4.672 7.646-11.751 12.743-19.256 18.265zM348.341 114.968c.425-6.371 1.133-12.743 1.133-19.114 0-12.035-1.841-24.07-5.522-35.68-1.133-3.115-2.407-6.23-3.965-9.061-1.557-3.115-1.274-5.947 1.133-7.504 2.407-1.558 5.239-.85 7.363 1.982 3.398 4.672 5.097 10.053 6.512 15.574 3.682 14.725 5.947 29.733 4.248 45.025-.283 2.973-.283 5.946-.424 9.344 1.132-.991 1.84-1.699 2.69-2.407a4.4 4.4 0 0 1 3.114-1.274c1.133 0 2.266.283 3.257.991s1.699 1.699 1.841 2.832c.283 1.133 0 2.407-.708 3.398-2.407 3.681-4.956 7.221-7.788 10.477a43.5 43.5 0 0 1-6.654 5.805c-4.106 2.832-8.495 1.983-10.619-2.548-2.549-5.239-4.531-10.619-6.513-15.999a4.7 4.7 0 0 1 0-3.398c.425-1.133 1.274-1.983 2.265-2.549 1.133-.566 2.407-.708 3.54-.425s2.265.991 2.973 1.982c.708.85 1.133 1.841 1.841 2.832h.708z"/><path fill="#102185" d="M203.64 175.991c-30.866-.283-56.493-22.087-61.165-52.103-1.841-12.318.141-24.778 5.663-35.822 5.522-11.043 14.159-20.246 24.92-26.335 14.017-8.211 30.724-10.76 46.44-6.937 25.91 5.946 43.609 25.485 47.573 49.838 2.124 13.026 0 26.477-6.371 38.087-6.23 11.751-16 21.096-28.034 26.759-9.062 4.389-18.973 6.655-29.167 6.513zm53.662-62.156c.425-19.114-10.902-39.36-35.114-47.998-12.176-4.389-24.777-3.54-36.954 1.133-29.875 11.752-42.759 47.007-26.052 73.625 12.035 19.255 30.3 27.326 52.67 24.352 27.185-3.539 46.158-27.184 45.45-51.254z"/><path fill="#102185" d="M225.586 112.844c0 13.026-10.761 24.353-23.503 24.353s-5.664-.567-8.212-1.699a21.4 21.4 0 0 1-6.938-4.673c-1.982-1.982-3.54-4.389-4.673-7.079-1.132-2.69-1.557-5.38-1.557-8.212 0-12.884 10.902-24.494 23.503-24.211 14.017.283 21.38 10.76 21.38 21.663zm-23.503 13.875c3.539 0 6.937-1.557 9.344-4.106 2.549-2.548 3.965-5.946 3.965-9.486 0-1.982-.283-3.964-1.275-5.805-.991-1.699-2.265-3.256-3.964-4.247s-3.681-1.558-5.663-1.699c-1.983 0-3.965.424-5.664 1.415-2.265 1.133-4.248 2.832-5.522 4.956-1.416 2.124-2.124 4.531-2.407 7.079 0 1.558 0 3.115.567 4.531.566 1.416 1.274 2.832 2.407 3.964q1.698 1.699 3.822 2.549c1.416.566 2.974.849 4.531.849z"/></svg>
